img/repair.svg

<svg width="32" height="32" viewBox="0 0 32 32" fill="none" xmlns="http://www.w3.org/2000/svg">
<path d="M12.6663 26V24H5.99967C5.26634 24 4.59967 23.7066 4.11967 23.2133C3.62634 22.7333 3.33301 22.0666 3.33301 21.3333C3.33301 19.96 4.39967 18.8133 5.74634 18.68C5.82634 18.6666 5.90634 18.6666 5.99967 18.6666H25.9997C26.093 18.6666 26.173 18.6666 26.253 18.68C26.893 18.7333 27.453 19.0133 27.8797 19.4533C28.4263 19.9866 28.7197 20.7466 28.653 21.5733C28.533 22.9733 27.2663 24 25.853 24H19.333V26C19.333 27.84 17.8397 29.3333 15.9997 29.3333C14.1597 29.3333 12.6663 27.84 12.6663 26Z" stroke="#191A23" stroke-width="1.5" stroke-linecap="round" stroke-linejoin="round"/>
<path d="M26.8936 7.06663L26.2536 18.68C26.1736 18.6666 26.0936 18.6666 26.0002 18.6666H6.00022C5.90688 18.6666 5.82688 18.6666 5.74688 18.68L5.10688 7.06663C4.86688 4.70663 6.72022 2.66663 9.08022 2.66663H22.9202C25.2802 2.66663 27.1336 4.70663 26.8936 7.06663Z" stroke="#191A23" stroke-width="1.5" stroke-linecap="round" stroke-linejoin="round"/>
<path d="M10.6533 2.66663V9.33329" stroke="#191A23" stroke-width="1.5" stroke-linecap="round" stroke-linejoin="round"/>
<path d="M16 2.66663V5.33329" stroke="#191A23" stroke-width="1.5" stroke-linecap="round" stroke-linejoin="round"/>
</svg>

<svg xmlns="http://www.w3.org/2000/svg" width="32" height="32" fill="none"><path stroke="#191A23" stroke-linecap="round" stroke-linejoin="round" stroke-width="1.5" d="M12.666 26v-2H6c-.734 0-1.4-.293-1.88-.787a2.6 2.6 0 0 1-.787-1.88c0-1.373 1.067-2.52 2.413-2.653.08-.013.16-.013.254-.013h20c.093 0 .173 0 .253.013.64.053 1.2.333 1.627.773.546.534.84 1.294.773 2.12-.12 1.4-1.387 2.427-2.8 2.427h-6.52v2a3.334 3.334 0 0 1-6.667 0"/><path stroke="#191A23" stroke-linecap="round" stroke-linejoin="round" stroke-width="1.5" d="m26.894 7.067-.64 11.613c-.08-.013-.16-.013-.254-.013H6c-.093 0-.173 0-.253.013l-.64-11.613a3.995 3.995 0 0 1 3.973-4.4h13.84c2.36 0 4.214 2.04 3.974 4.4M10.653 2.667v6.666M16 2.667v2.666"/></svg>
